X: 54
T:Crossing The Stream
M:4/4
L:1/4
Q:140
R:Polka
K:Am
AB|"Am"c A "G"d/2f/2e/2d/2|"Am"c A "G"G A/2B/2|"Am" c A "Em"g e "Dm"f/e/d/c/  "G"d c/d/|"Am"e A A B/2c/2  "G"d/2/c/2B/2A/2 G e|!
e d/2c/2 B/2A/2 G A3:|c/2B/2|"Am"A a a B/2A/2|"G"G g g e/2d/2|"Am"e e "Em"g a|!
"Am"e "G"d>c|"Am"A A A/2G/2A/2B/2|"Am"c d e c|"Dm"d d/2e/2 "Em"B/2A/2 G "Am"A A:|
